tenants/vtwonen/icons/back_to_top.svg

<svg fill="none" height="24" viewBox="0 0 24 24" width="24" xmlns="http://www.w3.org/2000/svg"><path d="m4.66406 11.6429 6.93754-6.62951c.2203-.20982.5765-.20982.7968 0l6.9375 6.62951c.2203.2098.2203.5491 0 .7589l-.3328.317c-.2203.2098-.5765.2098-.7969 0l-5.4093-5.17862v13.92412c0 .2946-.2532.5357-.5625.5357h-.4688c-.3093 0-.5625-.2411-.5625-.5357v-13.92412l-5.40935 5.17412c-.22031.2098-.57656.2098-.79688 0l-.33281-.317c-.22031-.2053-.22031-.5446 0-.7544zm-1.66406-9.10719v.35715c0 .29464.25313.53571.5625.53571h16.875c.3094 0 .5625-.24107.5625-.53571v-.35715c0-.29464-.2531-.53571-.5625-.53571h-16.875c-.30937 0-.5625.24107-.5625.53571z" fill="#000"/></svg>

<svg width="24" height="24" viewBox="0 0 24 24" fill="none" xmlns="http://www.w3.org/2000/svg">
<path d="M4.66406 11.6429L11.6016 5.01339C11.8219 4.80357 12.1781 4.80357 12.3984 5.01339L19.3359 11.6429C19.5562 11.8527 19.5562 12.192 19.3359 12.4018L19.0031 12.7188C18.7828 12.9286 18.4266 12.9286 18.2062 12.7188L12.7969 7.54018V21.4643C12.7969 21.7589 12.5437 22 12.2344 22H11.7656C11.4563 22 11.2031 21.7589 11.2031 21.4643V7.54018L5.79375 12.7143C5.57344 12.9241 5.21719 12.9241 4.99687 12.7143L4.66406 12.3973C4.44375 12.192 4.44375 11.8527 4.66406 11.6429V11.6429ZM3 2.53571V2.89286C3 3.1875 3.25313 3.42857 3.5625 3.42857H20.4375C20.7469 3.42857 21 3.1875 21 2.89286V2.53571C21 2.24107 20.7469 2 20.4375 2H3.5625C3.25313 2 3 2.24107 3 2.53571Z" fill="black"/>
</svg>
